!!!COM: Fe/licien David
!!!CNT: Francais
!!!TXO: Francais
!!!OTL: Le Sommeil de L'Enfant
!!!LYR: Gabriel Monavon
!!!ENC: Jacob Pegg
!!!YOR: Romantic French Song 1830-1870, David Tunley, ed., New York: Garland Publishing, Inc., 1995
!!!ODT: 1845/
!!NB: Vocal melody and text only encoded.
!!NB: Only first strophe encoded.
**kern	**silbe
*clef G2	*
*k[b-e-a-d-]	*
*M3/4	*
=1	=1
2.r	.
=2	=2
4r	.
4r	.
{4cc	{En-
=3	=3
4cc	-fant,
8dd-	dors
8cc	dans
8b-	ta
8cc	cor-
=4	=4
4a-	-beil-
4e-}	-le;}
{4cc	{Plus
=5	=5
4cc	beau
8cc	que
8b-	la
8cc	fleur
8dd-	ver-
=6	=6
4ee-	-meil-
4cc}	-le,}
{4cc	{Dors!
=7	=7
(8ff	ta
8ee-)	|
8a-	me\-
8a-	-re
8.b-	sur
16b-	toi
=8	=8
4g	veil-
4e-}	-le}
{8a-	{Comme
8g	un
=9	=9
8f	an-
8cc	-ge
(4cc	pro-
8.b-)	|
16a-	-tec-
=10	=10
2a-}	-teur.}
4r	.
=11	=11
2.r	.
=12	=12
4r	.
4r	.
{8e-	{Sus-
8e-	-pen-
=13	=13
4a-	-dus
4a-	a\
8g	ton
8f	sou-
=14	=14
4g	-ri-
4e-}	-re,}
{8cc	{A
8cc	ta
=15	=15
4cc	le\-
(8cc	-vre
8bn)	|
8cc	qui
8ddn	res-
=16	=16
4ee-	-pi-
4cc}	-re,}
{8cc	{Ses
8cc	re-
=17	=17
4ff	-gards
(8ee-	cher-
8dd-)	|
8cc	-chent
8b-	a\
=18	=18
4ee-	li-
4cc}	-re}
{8a-	{Les
8a-	doux
=19	=19
8a-	re^-
8a-	-ves
4.g	de
8f	ton
=20	=20
2en}	coeur,}
{8cc	{Les
8cc	doux
=21	=21
8cc	re^-
8cc	-ves
4.dd-;	de
8g	ton
=22	=22
2a-}	coeur.}
4r	.
=23	=23
*-	*-
